docs/images/hap-logo.svg

<svg height="35" viewBox="0 0 104 35" width="104" xmlns="http://www.w3.org/2000/svg" xmlns:xlink="http://www.w3.org/1999/xlink"><mask id="a" fill="#fff"><path d="m0 34.1727093h103.780639v-33.37990244h-103.780639z" fill="#fff" fill-rule="evenodd"/></mask><g fill="#fff" fill-rule="evenodd"><path d="m57.622205 14.2060224v7.5812156h-7.9878991v-7.5812156h-4.9474286v20.0277706h4.9474286v-8.3723138h7.9878991v8.3723138h4.9483026v-20.0277706z"/><path d="m73.0481143 14.2060224-8.5944202 20.0277706h5.3817815l1.5058152-3.9307159h7.9284705l1.5923362 3.9307159h5.4980168l-8.5087731-20.0277706zm2.3159664 5.3471747 2.5449411 6.8729862h-5.1501848z"/><g transform="translate(0 .061255)"><path d="m95.360921 18.048829h-2.1708907v4.7243771h2.0826218c1.8527731 0 3.5604706-.5373659 3.5604706-2.4330969 0-1.9239236-1.7076975-2.2912802-3.4722017-2.2912802zm.2884034 8.5713698h-2.4592941v7.5521688h-4.9483026v-20.0277706h7.522958c4.4859833 0 8.0158653 1.583905 8.0158653 6.1673197 0 4.6389453-3.8488737 6.3082821-8.1312266 6.3082821z"/><path d="m0 34.1727093h15.3666555v-33.37990244h-15.3666555z" mask="url(#a)"/><path d="m18.7803025 34.1727093h15.3666555v-20.0277706h-15.3666555z" mask="url(#a)"/></g></g></svg>

<svg width="104px" height="35px" viewBox="0 0 104 35" version="1.1" xmlns="http://www.w3.org/2000/svg" xmlns:xlink="http://www.w3.org/1999/xlink">
    <!-- Generator: Sketch 43.1 (39012) - http://www.bohemiancoding.com/sketch -->
    <desc>Created with Sketch.</desc>
    <defs>
        <polygon id="path-1" points="0 34.1727093 103.780639 34.1727093 103.780639 0.792806856 0 0.792806856"></polygon>
    </defs>
    <g id="Page-1" stroke="none" stroke-width="1" fill="none" fill-rule="evenodd">
        <g id="HAP-Home-R1B" transform="translate(-120.000000, -31.000000)">
            <g id="Group-4">
                <g id="Group-3" transform="translate(120.000000, 31.000000)">
                    <g id="Page-1">
                        <polygon id="Fill-1" fill="#FFFFFF" points="57.622205 14.2060224 57.622205 21.787238 49.6343059 21.787238 49.6343059 14.2060224 44.6868773 14.2060224 44.6868773 34.233793 49.6343059 34.233793 49.6343059 25.8614792 57.622205 25.8614792 57.622205 34.233793 62.5705076 34.233793 62.5705076 14.2060224"></polygon>
                        <path d="M73.0481143,14.2060224 L64.4536941,34.233793 L69.8354756,34.233793 L71.3412908,30.3030771 L79.2697613,30.3030771 L80.8620975,34.233793 L86.3601143,34.233793 L77.8513412,14.2060224 L73.0481143,14.2060224 Z M75.3640807,19.5531971 L77.9090218,26.4261833 L72.758837,26.4261833 L75.3640807,19.5531971 Z" id="Fill-2" fill="#FFFFFF"></path>
                        <g id="Group-8" transform="translate(0.000000, 0.061255)">
                            <path d="M95.360921,18.048829 L93.1900303,18.048829 L93.1900303,22.7732061 L95.2726521,22.7732061 C97.1254252,22.7732061 98.8331227,22.2358402 98.8331227,20.3401092 C98.8331227,18.4161856 97.1254252,18.048829 95.360921,18.048829 Z M95.6493244,26.6201988 L93.1900303,26.6201988 L93.1900303,34.1723676 L88.2417277,34.1723676 L88.2417277,14.144597 L95.7646857,14.144597 C100.250669,14.144597 103.780551,15.728502 103.780551,20.3119167 C103.780551,24.950862 99.9316773,26.6201988 95.6493244,26.6201988 Z" id="Fill-3" fill="#FFFFFF"></path>
                            <mask id="mask-2" fill="white">
                                <use xlink:href="#path-1"></use>
                            </mask>
                            <g id="Clip-6"></g>
                            <polygon id="Fill-5" fill="#FFFFFF" mask="url(#mask-2)" points="0 34.1727093 15.3666555 34.1727093 15.3666555 0.792806856 0 0.792806856"></polygon>
                            <polygon id="Fill-7" fill="#FFFFFF" mask="url(#mask-2)" points="18.7803025 34.1727093 34.146958 34.1727093 34.146958 14.1449387 18.7803025 14.1449387"></polygon>
                        </g>
                    </g>
                </g>
            </g>
        </g>
    </g>
</svg>
